src/icons/bag.svg

<svg width="19" height="21" viewBox="0 0 19 21" fill="none" xmlns="http://www.w3.org/2000/svg">
<path d="M4.4 1.6C4.11672 1.6 3.84997 1.73337 3.68 1.96L1.28 5.16C1.16316 5.31579 1.1 5.50527 1.1 5.7V16.9C1.1 17.563 1.36339 18.1989 1.83223 18.6678C2.30107 19.1366 2.93696 19.4 3.6 19.4H14.8C15.463 19.4 16.0989 19.1366 16.5678 18.6678C17.0366 18.1989 17.3 17.563 17.3 16.9V5.7C17.3 5.50527 17.2368 5.31579 17.12 5.16L14.72 1.96C14.55 1.73337 14.2833 1.6 14 1.6H4.4Z" stroke="#1F2937" stroke-width="1.8" stroke-linejoin="round"/>
<path d="M2 5.7002H16.4" stroke="#1F2937" stroke-width="1.8" stroke-linejoin="round"/>
<mask id="path-3-outside-1_90_45" maskUnits="userSpaceOnUse" x="4" y="8.8999" width="11" height="5" fill="black">
<rect fill="white" x="4" y="8.8999" width="11" height="5"/>
<path d="M12.4 8.8999C12.4 9.7486 12.0629 10.5625 11.4627 11.1626C10.8626 11.7628 10.0487 12.0999 9.2 12.0999C8.35131 12.0999 7.53737 11.7628 6.93726 11.1626C6.33714 10.5625 6 9.7486 6 8.8999"/>
</mask>
<path d="M9.2 12.0999V13.8999V12.0999ZM10.6 8.8999C10.6 9.27121 10.4525 9.6273 10.1899 9.88985L12.7355 12.4354C13.6732 11.4978 14.2 10.226 14.2 8.8999L10.6 8.8999ZM10.1899 9.88985C9.9274 10.1524 9.5713 10.2999 9.2 10.2999V13.8999C10.5261 13.8999 11.7979 13.3731 12.7355 12.4354L10.1899 9.88985ZM9.2 10.2999C8.8287 10.2999 8.4726 10.1524 8.21005 9.88985L5.66447 12.4354C6.60215 13.3731 7.87392 13.8999 9.2 13.8999V10.2999ZM8.21005 9.88985C7.9475 9.6273 7.8 9.27121 7.8 8.8999L4.2 8.8999C4.2 10.226 4.72678 11.4978 5.66447 12.4354L8.21005 9.88985Z" fill="#1F2937" mask="url(#path-3-outside-1_90_45)"/>
</svg>

<svg xmlns="http://www.w3.org/2000/svg" width="19" height="21" fill="none"><path stroke="#1F2937" stroke-linejoin="round" stroke-width="1.8" d="M4.4 1.6a.9.9 0 0 0-.72.36l-2.4 3.2a.9.9 0 0 0-.18.54v11.2a2.5 2.5 0 0 0 2.5 2.5h11.2a2.5 2.5 0 0 0 2.5-2.5V5.7a.9.9 0 0 0-.18-.54l-2.4-3.2A.9.9 0 0 0 14 1.6H4.4ZM2 5.7h14.4"/><mask id="a" width="11" height="5" x="4" y="8.9" fill="#000" maskUnits="userSpaceOnUse"><path fill="#fff" d="M4 8.9h11v5H4z"/><path d="M12.4 8.9a3.2 3.2 0 1 1-6.4 0"/></mask><path fill="#1F2937" d="M9.2 12.1v1.8-1.8Zm1.4-3.2a1.4 1.4 0 0 1-.41.99l2.546 2.545A5 5 0 0 0 14.2 8.9h-3.6Zm-.41.99a1.4 1.4 0 0 1-.99.41v3.6a5 5 0 0 0 3.536-1.465L10.19 9.89Zm-.99.41a1.4 1.4 0 0 1-.99-.41l-2.546 2.545A5 5 0 0 0 9.2 13.9v-3.6Zm-.99-.41a1.4 1.4 0 0 1-.41-.99H4.2a5 5 0 0 0 1.464 3.535L8.21 9.89Z" mask="url(#a)"/></svg>
